assets/img/logo-blue.svg

<svg width="138" height="40" viewBox="0 0 138 40" fill="none" xmlns="http://www.w3.org/2000/svg">
<path d="M16.3171 24.0025C17.2679 24.864 18.5274 25.3885 19.909 25.3885C22.8703 25.3885 25.2711 22.9767 25.2711 20.0018C25.2711 17.0273 22.8703 14.6133 19.909 14.6133C18.5218 14.6133 17.2547 15.1435 16.302 16.0145C16.281 16.0318 16.2618 16.0508 16.2411 16.0719C15.2884 16.941 14.0229 17.4712 12.6359 17.4712C11.2487 17.4712 9.98157 16.941 9.03078 16.0719C9.00976 16.0508 8.9909 16.0318 8.96961 16.0145C8.01693 15.1435 6.74983 14.6133 5.36257 14.6133C2.40132 14.6133 0.000488281 17.0273 0.000488281 20.0018C0.000488281 22.9767 2.40132 25.3885 5.36257 25.3885C6.74417 25.3885 8.00346 24.864 8.95426 24.0025C8.9847 23.9757 9.01542 23.947 9.04586 23.9164C9.99478 23.0549 11.2543 22.5306 12.6359 22.5306C14.0175 22.5306 15.275 23.0552 16.2257 23.9164C16.2562 23.947 16.2866 23.9757 16.3171 24.0025Z" fill="#6D2CF8"/>
<path d="M19.9078 0C16.946 0 14.5449 2.41212 14.5449 5.38775C14.5449 8.36339 16.946 10.7755 19.9078 10.7755C24.9708 10.7755 29.0903 14.9142 29.0903 20.0001C29.0903 25.0864 24.9706 29.2248 19.9078 29.2248C16.946 29.2248 14.5449 31.6369 14.5449 34.6125C14.5449 37.5879 16.946 40 19.9078 40C30.9027 40 39.8166 31.0452 39.8166 19.9999C39.8166 8.95451 30.9027 0 19.9078 0Z" fill="#6D2CF8"/>
<path d="M5.36315 10.7755C8.32514 10.7755 10.7263 8.36333 10.7263 5.38775C10.7263 2.41218 8.32514 0 5.36315 0C2.40116 0 0 2.41218 0 5.38775C0 8.36333 2.40116 10.7755 5.36315 10.7755Z" fill="#6D2CF8"/>
<path d="M118.916 32.5525V6.91406H130.03C131.639 6.91406 133.04 7.19486 134.234 7.75647C135.429 8.31807 136.355 9.11164 137.013 10.1372C137.671 11.1627 138 12.3714 138 13.7632V14.2027C138 15.741 137.634 16.9863 136.903 17.9386C136.172 18.8909 135.27 19.5868 134.198 20.0263V20.6856C135.173 20.7344 135.928 21.0763 136.464 21.7111C137.001 22.3216 137.269 23.1395 137.269 24.1651V32.5525H132.443V24.861C132.443 24.275 132.285 23.7988 131.968 23.4326C131.675 23.0663 131.176 22.8832 130.469 22.8832H123.742V32.5525H118.916ZM123.742 18.488H129.518C130.664 18.488 131.553 18.1828 132.187 17.5723C132.845 16.9375 133.174 16.1073 133.174 15.0817V14.7155C133.174 13.6899 132.857 12.872 132.224 12.2615C131.59 11.6267 130.688 11.3092 129.518 11.3092H123.742V18.488Z" fill="white"/>
<path d="M104.154 33.0644C100.937 33.0644 98.3777 32.1854 96.4766 30.4273C94.5755 28.6448 93.625 26.1054 93.625 22.809V16.6558C93.625 13.3594 94.5755 10.8322 96.4766 9.07412C98.3777 7.29163 100.937 6.40039 104.154 6.40039C107.371 6.40039 109.93 7.29163 111.832 9.07412C113.733 10.8322 114.683 13.3594 114.683 16.6558V22.809C114.683 26.1054 113.733 28.6448 111.832 30.4273C109.93 32.1854 107.371 33.0644 104.154 33.0644ZM104.154 28.7425C105.958 28.7425 107.359 28.2175 108.358 27.1675C109.358 26.1176 109.857 24.7136 109.857 22.9555V16.5093C109.857 14.7512 109.358 13.3472 108.358 12.2972C107.359 11.2473 105.958 10.7223 104.154 10.7223C102.375 10.7223 100.973 11.2473 99.9498 12.2972C98.9505 13.3472 98.4508 14.7512 98.4508 16.5093V22.9555C98.4508 24.7136 98.9505 26.1176 99.9498 27.1675C100.973 28.2175 102.375 28.7425 104.154 28.7425Z" fill="white"/>
<path d="M69.498 32.5525L76.225 6.91406H84.6336L91.3605 32.5525H86.3885L84.9992 26.9121H75.8594L74.4701 32.5525H69.498ZM76.9927 22.4436H83.8659L80.7583 9.95405H80.1003L76.9927 22.4436Z" fill="white"/>
<path d="M57.9659 33.0644C55.9917 33.0644 54.2491 32.7103 52.7379 32.0022C51.2268 31.2941 50.0447 30.2808 49.1917 28.9622C48.3386 27.6437 47.9121 26.0565 47.9121 24.2008V23.1753H52.6648V24.2008C52.6648 25.7391 53.1401 26.899 54.0906 27.6803C55.0412 28.4373 56.3329 28.8157 57.9659 28.8157C59.6233 28.8157 60.8541 28.4861 61.6584 27.8268C62.4871 27.1675 62.9014 26.3251 62.9014 25.2996C62.9014 24.5915 62.6943 24.0177 62.2799 23.5782C61.89 23.1386 61.305 22.7846 60.5251 22.516C59.7695 22.223 58.8433 21.9544 57.7466 21.7102L56.9057 21.5271C55.1509 21.1364 53.6397 20.6481 52.3723 20.062C51.1293 19.4516 50.1666 18.658 49.4842 17.6813C48.8261 16.7046 48.4971 15.4349 48.4971 13.8722C48.4971 12.3094 48.8627 10.9787 49.5938 9.8799C50.3494 8.75669 51.3974 7.90207 52.7379 7.31605C54.1028 6.70561 55.6992 6.40039 57.5272 6.40039C59.3552 6.40039 60.976 6.71782 62.3896 7.35268C63.8276 7.96312 64.9488 8.89098 65.7531 10.1363C66.5817 11.3572 66.9961 12.8955 66.9961 14.7512V15.85H62.2434V14.7512C62.2434 13.7745 62.0484 12.9931 61.6584 12.4071C61.2928 11.7967 60.7566 11.3572 60.0498 11.0886C59.343 10.7956 58.5021 10.649 57.5272 10.649C56.0648 10.649 54.9802 10.9299 54.2734 11.4915C53.591 12.0286 53.2498 12.7734 53.2498 13.7257C53.2498 14.3605 53.4082 14.8977 53.725 15.3372C54.0663 15.7767 54.5659 16.143 55.224 16.436C55.882 16.729 56.7229 16.9854 57.7466 17.2052L58.5874 17.3883C60.4154 17.779 61.9996 18.2795 63.3401 18.89C64.705 19.5004 65.7652 20.3062 66.5208 21.3073C67.2764 22.3084 67.6541 23.5904 67.6541 25.1531C67.6541 26.7158 67.252 28.0954 66.4477 29.2919C65.6678 30.4639 64.5466 31.3918 63.0842 32.0755C61.6462 32.7348 59.9401 33.0644 57.9659 33.0644Z" fill="white"/>
</svg>

<svg xmlns="http://www.w3.org/2000/svg" width="138" height="40" fill="none"><path fill="#6D2CF8" d="M16.317 24.003a5.33 5.33 0 0 0 3.592 1.386c2.961 0 5.362-2.412 5.362-5.387s-2.4-5.389-5.362-5.389a5.33 5.33 0 0 0-3.668 1.459 5.33 5.33 0 0 1-3.605 1.4 5.33 5.33 0 0 1-3.605-1.4q-.03-.032-.061-.057a5.33 5.33 0 0 0-3.607-1.402C2.4 14.613 0 17.027 0 20.002s2.401 5.387 5.363 5.387a5.33 5.33 0 0 0 3.683-1.473 5.32 5.32 0 0 1 3.59-1.385 5.33 5.33 0 0 1 3.681 1.472"/><path fill="#6D2CF8" d="M19.908 0c-2.962 0-5.363 2.412-5.363 5.388s2.401 5.387 5.363 5.387c5.063 0 9.182 4.14 9.182 9.225 0 5.086-4.12 9.225-9.182 9.225-2.962 0-5.363 2.412-5.363 5.387 0 2.976 2.401 5.388 5.363 5.388 10.995 0 19.909-8.955 19.909-20S30.903 0 19.907 0M5.363 10.776c2.962 0 5.363-2.413 5.363-5.388S8.326 0 5.363 0C2.401 0 0 2.412 0 5.388s2.401 5.387 5.363 5.387"/><path fill="#fff" d="M118.916 32.553V6.914h11.114q2.413 0 4.204.842 1.792.843 2.779 2.381t.987 3.626v.44q0 2.307-1.097 3.736a6.45 6.45 0 0 1-2.705 2.087v.66q1.462.072 2.266 1.025.805.916.805 2.454v8.388h-4.826V24.86q0-.879-.475-1.428-.439-.55-1.499-.55h-6.727v9.67zm4.826-14.065h5.776q1.718 0 2.669-.916.987-.952.987-2.49v-.367q0-1.538-.95-2.453-.951-.953-2.706-.953h-5.776zM104.154 33.064q-4.826 0-7.677-2.637-2.852-2.674-2.852-7.618v-6.153q0-4.945 2.852-7.582 2.85-2.673 7.677-2.674 4.825 0 7.678 2.674 2.851 2.637 2.851 7.582v6.153q0 4.945-2.851 7.618-2.853 2.637-7.678 2.637m0-4.321q2.706 0 4.204-1.575 1.5-1.575 1.499-4.212v-6.447q0-2.637-1.499-4.212-1.498-1.575-4.204-1.575-2.669 0-4.204 1.575-1.5 1.575-1.5 4.212v6.447q0 2.637 1.5 4.212 1.535 1.575 4.204 1.575M69.498 32.553l6.727-25.639h8.409l6.727 25.639h-4.973L85 26.913h-9.14l-1.389 5.64zm7.495-10.11h6.873L80.758 9.955H80.1zM57.966 33.064q-2.961 0-5.228-1.062t-3.546-3.04-1.28-4.761v-1.026h4.753v1.026q0 2.307 1.426 3.48 1.425 1.134 3.875 1.135 2.486 0 3.692-.99 1.244-.988 1.243-2.526 0-1.063-.621-1.722-.585-.66-1.755-1.062-1.133-.44-2.778-.806l-.841-.183q-2.632-.586-4.534-1.465-1.864-.915-2.888-2.38-.987-1.465-.987-3.81t1.097-3.992q1.133-1.685 3.144-2.564 2.047-.916 4.79-.916 2.74 0 4.862.953 2.157.915 3.363 2.783 1.243 1.832 1.243 4.615v1.099h-4.753v-1.099q0-1.464-.585-2.344-.547-.916-1.608-1.318-1.06-.44-2.523-.44-2.193 0-3.254.843-1.023.805-1.023 2.234 0 .952.475 1.611.511.66 1.499 1.099.987.44 2.523.77l.84.182q2.742.586 4.753 1.502 2.047.915 3.18 2.417t1.134 3.846-1.206 4.139q-1.17 1.758-3.364 2.783-2.157.99-5.118.99"/></svg>
